teeny/solid/link-remove.svg

<svg width="15" height="15" viewBox="0 0 15 15" fill="none" xmlns="http://www.w3.org/2000/svg">
<path fill-rule="evenodd" clip-rule="evenodd" d="M4 3V0H5V3H4ZM9.31802 0.974873C9.94222 0.350672 10.7888 0 11.6716 0C13.5098 0 15 1.49019 15 3.32843C15 4.21118 14.6493 5.05778 14.0251 5.68198L10.8536 8.85355L10.1464 8.14645L13.318 4.97487C13.7547 4.53821 14 3.94596 14 3.32843C14 2.04247 12.9575 1 11.6716 1C11.054 1 10.4618 1.24532 10.0251 1.68198L6.85355 4.85355L6.14645 4.14645L9.31802 0.974873ZM0 4H3V5H0V4ZM10.8536 4.85355L4.85355 10.8536L4.14645 10.1464L10.1464 4.14645L10.8536 4.85355ZM4.85355 6.85355L1.68198 10.0251C1.24532 10.4618 1 11.054 1 11.6716C1 12.9575 2.04247 14 3.32843 14C3.94596 14 4.53821 13.7547 4.97487 13.318L8.14645 10.1464L8.85355 10.8536L5.68198 14.0251C5.05778 14.6493 4.21118 15 3.32843 15C1.49019 15 0 13.5098 0 11.6716C0 10.7888 0.350673 9.94222 0.974874 9.31802L4.14645 6.14645L4.85355 6.85355ZM15 11H12V10H15V11ZM10 15V12H11V15H10Z" fill="black"/>
</svg>

<svg viewBox="0 0 15 15" xmlns="http://www.w3.org/2000/svg"><path fill-rule="evenodd" d="M4 3V0h1v3H4ZM9.31.97c.62-.63 1.47-.98 2.35-.98 1.83 0 3.32 1.49 3.32 3.32 0 .88-.36 1.72-.98 2.35l-3.18 3.17 -.71-.71 3.17-3.18c.43-.44.68-1.03.68-1.65C13.96 2 12.91.96 11.63.96c-.62 0-1.21.24-1.65.68L6.8 4.81l-.71-.71L9.26.92ZM-.01 3.99h3v1h-3v-1Zm10.85.85l-6.01 6 -.71-.71 5.99-6 .7.7Zm-6.01 2l-3.18 3.17c-.44.43-.69 1.02-.69 1.64 0 1.28 1.04 2.32 2.32 2.32 .61 0 1.2-.25 1.64-.69l3.17-3.18 .7.7 -3.18 3.17c-.63.62-1.48.97-2.36.97 -1.84 0-3.33-1.5-3.33-3.33 0-.89.35-1.73.97-2.36l3.17-3.18 .7.7Zm10.14 4.14h-3v-1h3v1Zm-5 4v-3h1v3h-1Z"/></svg>
